X:71
T: Uebers Loaterl, da steig i net aufi,
N: D0074
O: Europa, Mitteleuropa, Deutschland, Bayernalpe
N: Unterstimme vorwiegend in Terzen; Verzierung; Inzipit = Variante
R: Kilt - Lied
M: 3/4
L: 1/16
K: F
A2A2 | A2c2f6A2 | c6B2A4 | c2G2B4z2
B2 | B2c2e6B2 | d4c4B4 | A4z4z2
A2 | A2c2f6A2 | c4B4A4 | c2G2B6
B2 | B2c2e6B2 | d4c4B4 | A4z4z4
G2GGG4C2z2 | A2f2c4f2c2 | e6d2B4 | A4z4z4
G2GGG4C2z2 | A2f2c4f2c2 | e6d2B4 | A4z4
c2c2 | d6c2A4 | c6B2G4 | e6d2B4 | d6c2A4
d6c2A4 | c6B2G4 | e6d2c2B2 | A4z4

